X:193
T:Woodland Revels
M:4/4
L:1/8
K:G
E3 c B4 | E3 c B4 | c2 c2 e2 c2 | B3 c BAGF | 
E3 c B4 | E3 c B4 | A2 A2 B2 ^c2 | d2 A2 F2 D2 | 
E3 c B4 | E3 c B4 | c2 c2 e2 c2 | B4 B4 | 
c2 c2 B4 | c2 c2 B4 | B2 Bc BA GF | E4 D4 || 
GBde d4 | GBde d4 | G2 B2 c2 B2 | A2 e2 e4 | 
A3 B c3 B | A3 B c3 B | A2 c2 B2 A2 | G2 e2 d4 | 
GBde d4 | GBde d4 | G2 B2 c2 B2 | A2 e2 e4 | 
e2 c2 e2 c2 | d2 B2 d3 d | dc BA GF GA | B2 d2 g2 fe || 
d2 d4 ed | e2 d2 B2 G2 | E G2 E G2 A2 | B4 B2 d2 | 
d2 d4 ed | e2 d2 B2 G2 | E A2 E A2 B2 | A2 F2 E2 D2 | 
d2 d4 ed | e2 d2 B2 G2 | E G2 E G2 A2 | B4 B2 d2 | 
e3 e3 fe | d2 B2 d4 | e4 f4 | g8 || 

